X:408
T:Stick Dance - Upton on Severn
N:Tune as played for Grand Union Morris
N:www.grandunionmorris.co.uk
M:6/8
L:1/8
Q:100
K:G
"A" e | dBB BAG | AGA BGE | DGG GAB | edB A2 e | dBB BAG | AGA BGE | DGG
 GAB | ABA G2 ||
"B" G | GBd g2 d | edc BAG |   GBd g2 d |edB  A3 | GBd g2 d | edc  Bcd |
 ege dBG | ABA G2 ||
